img/svg/hoder/utropstegn--gulfylt.svg

<?xml version="1.0" encoding="UTF-8"?>
<svg width="32px" height="32px" viewBox="0 0 32 32" version="1.1" xmlns="http://www.w3.org/2000/svg" xmlns:xlink="http://www.w3.org/1999/xlink">
    <!-- Generator: Sketch 44.1 (41455) - http://www.bohemiancoding.com/sketch -->
    <title>report problem circle</title>
    <desc>Created with Sketch.</desc>
    <defs></defs>
    <g id="Oversiktsside-søknader" stroke="none" stroke-width="1" fill="none" fill-rule="evenodd">
        <g id="Sendt-+-korrigering-sendt" transform="translate(-221.000000, -377.000000)" fill-rule="nonzero" fill="#FF9100">
            <g id="report-problem-circle" transform="translate(221.000000, 377.000000)">
                <path d="M16.2726957,0.338580645 L15.9874783,0.341333333 C11.7022609,0.415655914 7.66886957,2.1292043 4.63165217,5.1667957 C1.57217391,8.2264086 -0.0709565217,12.2315699 0.0027826087,16.4459355 C0.155826087,25.167828 7.06365217,32 15.7286957,32 L16.0111304,31.9972473 C24.9794783,31.8444731 32.1516522,24.6186667 31.9972174,15.8940215 C31.8441739,7.17212903 24.9363478,0.338580645 16.2726957,0.338580645 Z M15.3043478,8.59664516 C15.3043478,8.21677419 15.616,7.90847312 16,7.90847312 C16.3826087,7.90847312 16.6956522,8.21677419 16.6956522,8.59664516 L16.6956522,18.2310538 C16.6956522,18.6109247 16.3826087,18.9192258 16,18.9192258 C15.616,18.9192258 15.3043478,18.6109247 15.3043478,18.2310538 L15.3043478,8.59664516 Z M16.0250435,24.4246022 C16.0166957,24.4246022 16.0083478,24.4246022 16,24.4246022 C15.2417391,24.4246022 14.6212174,23.8245161 14.6086957,23.0730323 C14.5947826,22.3132903 15.2069565,21.6856774 15.9749565,21.6732903 C15.9833043,21.6732903 15.9916522,21.671914 16,21.671914 C16.7582609,21.671914 17.3773913,22.2733763 17.3913043,23.0248602 C17.4052174,23.7846022 16.7916522,24.4108387 16.0250435,24.4246022 Z" id="Shape"></path>
            </g>
        </g>
    </g>
</svg>

<svg width="32" height="32" viewBox="0 0 32 32" xmlns="http://www.w3.org/2000/svg"><path d="M16.273.339l-.286.002A16.386 16.386 0 0 0 4.632 5.167c-3.06 3.06-4.703 7.065-4.63 11.279C.157 25.168 7.065 32 15.73 32l.282-.003c8.968-.153 16.14-7.378 15.986-16.103C31.844 7.172 24.937.339 16.273.339zm-.969 8.258c0-.38.312-.689.696-.689.383 0 .696.309.696.689v9.634c0 .38-.313.688-.696.688a.692.692 0 0 1-.696-.688V8.597zm.721 15.828H16c-.758 0-1.379-.6-1.391-1.352a1.382 1.382 0 0 1 1.366-1.4l.025-.001c.758 0 1.377.601 1.391 1.353.014.76-.6 1.386-1.366 1.4z" fill-rule="nonzero" fill="#FF9100"/></svg>
